!!!COM: Mozart, Wolfgang Amadeus
!!!CDT: 1756/01/27/-1791/12/05/
!!!CNT: German
!!!OTL: Piano Sonata No. 11 in A major
!!!SCT1: K<sup>1</sup> 331
!!!SCT2: K<sup>6</sup> 300i
!!!OMV: Mvmt. 1e
!!!OMD: Variation IV
!!!ODT: 1778-1873///
**kern	**kern	**dynam
*staff2	*staff1	*staff1/2
*>[A,A,B,B]	*>[A,A,B,B]	*>[A,A,B,B]
*>norep[A,B]	*>norep[A,B]	*>norep[A,B]
*>A	*>A	*>A
*clefF4	*clefG2	*clefG2
*k[f#c#g#]	*k[f#c#g#]	*k[f#c#g#]
*A:	*A:	*A:
*M6/8	*M6/8	*M6/8
*MM72	*MM72	*MM72
=1-	=1-	=1-
*	*^	*
8AA\ 8A\	8r	16a\ 16cc#\LL	p
.	.	16e\	.
4r	8aa/ (8ccc#/L	16a\ 16cc#\	.
.	.	16e\	.
.	8bb/ 8ddd/J)	16b\ 16dd\	.
.	.	16e\JJ	.
4.r	8ccc#/ (8eee/L	16cc#\ 16ee\LL	.
.	.	16e\	.
.	8bb/ 8ddd/	16b\ 16dd\	.
.	.	16e\	.
.	8aa/ 8ccc#/J)	16a\ 16cc#\	.
.	.	16e\JJ	.
=2	=2	=2	=2
8EE\ 8E\	8r	16g#\ 16b\LL	.
.	.	16e\	.
4r	8gg#/ (8bb/L	16g#\ 16b\	.
.	.	16e\	.
.	8aa/ 8ccc#/J)	16a\ 16cc#\	.
.	.	16e\JJ	.
4.r	8bb/ (8ddd/L	16b\ 16dd\LL	.
.	.	16e\	.
.	8aa/ 8ccc#/	16a\ 16cc#\	.
.	.	16e\	.
.	8gg#/ 8bb/J)	16g#\ 16b\	.
.	.	16e\JJ	.
=3	=3	=3	=3
8AA\ 8A\	8r	16e\ 16a\LL	.
.	.	16c#\	.
8r	8aa/	16e\ 16a\	.
.	.	16c#\	.
8AA\ 8A\	8r	16e\ 16a\	.
.	.	16c#\JJ	.
8EE\ 8E\	8r	16g#\ 16b\LL	.
.	.	16e\	.
8r	8bb/	16g#\ 16b\	.
.	.	16e\	.
8EE\ 8E\	8r	16g#\ 16b\	.
.	.	16e\JJ	.
=4	=4	=4	=4
4.r	8aa/ (8ccc#/L	16a\ 16cc#\LL	.
.	.	16e\	.
.	8bb/ 8ddd/	16b\ 16dd\	.
.	.	16e\	.
.	8aa/ 8ccc#/J)	16a\ 16cc#\	.
.	.	16e\JJ	.
8r	8gg#/ 8bb/	16g#\ 16b\LL	.
.	.	16e\	.
8e\L	4r	(16dd#\	.
.	.	16ee\)	.
8E\J	.	(16dd#\	.
.	.	16ee\JJ)	.
=5	=5	=5	=5
8AA\ 8A\	8r	16a\ 16cc#\LL	f
.	.	16e\	.
4r	8aa/ (8ccc#/L	16a\ 16cc#\	.
.	.	16e\	.
.	8bb/ 8dddn/J)	16b\ 16ddn\	.
.	.	16e\JJ	.
4.r	8ccc#/ (8eee/L	16cc#\ 16ee\LL	.
.	.	16e\	.
.	8bb/ 8ddd/	16b\ 16dd\	.
.	.	16e\	.
.	8aa/ 8ccc#/J)	16a\ 16cc#\	.
.	.	16e\JJ	.
=6	=6	=6	=6
8EE\ 8E\	8r	16g#\ 16b\LL	.
.	.	16e\	.
4r	8gg#/ (8bb/L	16g#\ 16b\	.
.	.	16e\	.
.	8aa/ 8ccc#/J)	16a\ 16cc#\	.
.	.	16e\JJ	.
4.r	8bb/ (8ddd/L	16b\ 16dd\LL	.
.	.	16e\	.
.	8aa/ 8ccc#/	16a\ 16cc#\	.
.	.	16e\	.
.	8gg#/ 8bb/J)	16g#\ 16b\	.
.	.	16e\JJ	.
=7	=7	=7	=7
8AA\ 8A\	8r	16e\ 16a\LL	.
.	.	16c#\	.
4r	8cc#/ (8aa/L	16e\ 16a\	.
.	.	16c#\	.
.	8ee/ 8bb/J)	16g#\ 16b\	.
.	.	16e\JJ	.
8r	8aa/ 8ccc#/	16a\ 16cc#\LL	.
.	.	16e\	.
8FF#\ 8F#\L	4r	16a\ 16cc#\	.
.	.	16f#\	.
8DD\ 8D\J	.	16b\ 16dd\	.
.	.	16f#\JJ	.
=8	=8	=8	=8
8EE\ 8E\	8r	16a\ 16cc#\LL	.
.	.	16e\	.
4r	8aa/ (8ccc#/L	16a\ 16cc#\	.
.	.	16e\	.
.	8gg#/J)	16g#\ 16b\	.
.	.	16e\JJ	.
8r	8aa/	16a'\LL	.
.	.	16e'\	.
8A'\L	4r	16c#'\	.
.	.	16e'\J	.
8AA\J	.	8a\J	.
*	*v	*v	*
=9:|!|:	=9:|!|:	=9:|!|:
*>B	*>B	*>B
16A\LL	(8.ee\L	p
16c#\	.	.
(16e\	.	.
16c#\	32ff#\LL	.
.	32ee\JJJ	.
16e\	32dd\LLL	.
.	32cc#\	.
16c#\JJ	32b\	.
.	32a\JJJ	.
16A\LL	16ee#\LL	.
16d\	16ff#\J)	.
16f#\	8ff#'\J	.
16d\	.	.
16f#\	8r	.
16d\JJ	.	.
=10	=10	=10
16A\LL	(16aa\LL	.
16d\	16gg#\	.
16f#\	16bb\	.
16d\	16aa\	.
16f#\	16gg#\	.
16d\JJ	16ff#\JJ	.
16A\LL	16dd#\LL	.
16c#\	16een\J)	.
16e\	8ee'\J	.
16c#\	.	.
16e\)	8r	.
16c#\JJ	.	.
=11	=11	=11
8AA\ 8C#\L	(8.ee\L	.
8A\ 8c#\J	.	.
.	32ff#\LL	.
.	32ee\JJJ	.
8r	32dd\LLL	.
.	32cc#\	.
.	32b\	.
.	32a\JJJ	.
8BB\ 8D\L	16ee\LK	.
.	8dd\	.
8B\ 8d\J	.	.
.	32ee\LL	.
.	32dd\JJJ	.
8r	32cc#\LLL	.
.	32b\	.
.	32a\	.
.	32g#\JJJ)	.
=12	=12	=12
*^	*^	*
4.r	8c#\ (8e\L	8a/L	4r	.
.	8B\ 8d\	8g#/	.	.
.	8A\ 8c#\J)	8a/J	8d#\	.
4A/ (4c#/	4.E\	4a/ (4cc#/	4.e\	.
8G#/ 8B/)	.	8g#/ 8b/)	.	.
*v	*v	*	*	*
=13	=13	=13	=13
8AA\ 8A\	8r	16a\ 16cc#\LL	p
.	.	16e\	.
4r	8aa/ (8ccc#/L	16a\ 16cc#\	.
.	.	16e\	.
.	8bb/ 8ddd/J)	16b\ 16dd\	.
.	.	16e\JJ	.
4.r	8ccc#/ (8eee/L	16cc#\ 16ee\LL	.
.	.	16e\	.
.	8bb/ 8ddd/	16b\ 16dd\	.
.	.	16e\	.
.	8aa/ 8ccc#/J)	16a\ 16cc#\	.
.	.	16e\JJ	.
=14	=14	=14	=14
8EE\ 8E\	8r	16g#\ 16b\LL	.
.	.	16e\	.
4r	8gg#/ (8bb/L	16g#\ 16b\	.
.	.	16e\	.
.	8aa/ 8ccc#/J)	16a\ 16cc#\	.
.	.	16e\JJ	.
4.r	8bb/ (8ddd/L	16b\ 16dd\LL	.
.	.	16e\	.
.	8aa/ 8ccc#/	16a\ 16cc#\	.
.	.	16e\	.
.	8gg#/ 8bb/J)	16g#\ 16b\	.
.	.	16e\JJ	.
=15	=15	=15	=15
8AA\ 8A\	8r	16e\ 16a\LL	.
.	.	16c#\	.
4r	8cc#/ (8aa/L	16e\ 16a\	.
.	.	16c#\	.
.	8ee/ 8bb/J)	16g#\ 16b\	.
.	.	16e\JJ	.
8r	8aa/ 8ccc#/	16a\ 16cc#\LL	.
.	.	16e\	.
8FF#\ 8F#\L	4r	16a\ 16cc#\	.
.	.	16f#\	.
8DD\ 8D\J	.	16b\ 16dd\	.
.	.	16f#\JJ	.
=16	=16	=16	=16
8EE\ 8E\	8r	16a\ 16cc#\LL	.
.	.	16e\	.
4r	8aa/ (8ccc#/L	16a\ 16cc#\	.
.	.	16e\	.
.	8gg#/ 8bb/J	16g#\ 16b\	.
.	.	16e\JJ	.
4.r	8gg#/ (8bb/L)	16g#\ 16b\LL	.
.	.	16e\	.
.	8bb/	16g#\ 16b#\	.
.	.	16e\	.
.	8aa/ 8ccc#/J)	16a\ 16cc#\	.
.	.	16e\JJ	.
=17	=17	=17	=17
8AA\ 8A\	8r	16a\ 16cc#\LL	f
.	.	16e\	.
4r	8aa/ (8ccc#/L	16a\ 16cc#\	.
.	.	16e\	.
.	8bbn/ 8ddd/J	16bn\ 16dd\	.
.	.	16e\JJ	.
8r	8ccc#/ 8eee/)	16cc#\ 16ee\LL	.
.	.	16a\	.
8AA\ 8A\L	4r	16cc#\ 16ee\	.
.	.	16a\	.
8DD\ 8D\J	.	16dd\ 16ff#\	.
.	.	16a\JJ	.
=18	=18	=18	=18
8EE\ 8E\	8r	16a\ 16cc#\LL	.
.	.	16e\	.
4r	8aa/ (8ccc#/L	16a\ 16cc#\	.
.	.	16e\	.
.	8gg#/ 8bb/J	16g#\ 16b\	.
.	.	16e\JJ	.
8r	8aa/)	16a'\LL	.
.	.	16e'\	.
8A'\L	4r	16c#'\	.
.	.	16e'\J	.
8AA\J	.	8a\J	.
*	*v	*v	*
==:|!	==:|!	==:|!
*-	*-	*-
!!!SMS: Alte Mozart-Ausgabe, Band 20, Breitkopf &amp; H&auml;rtel 1877-1883.
!!!ONB: Stich und Druck von Breitkopf &amp; H&auml;rtel in Leipzig
!!!ONB: Ausgegeben 1878
!!!ENC: Craig Stuart Sapp
!!!END: 2009/09/29/
!!!title: @{OTL}, K 331 (300i), @{OMV}
!!!hum2abc: --no-tempo -s 0.71 --spacing 1.9 -p "%gracespace  0 6.0 12.0"
